logos/genn.svg

<?xml version="1.0" encoding="UTF-8"?>
<!DOCTYPE svg PUBLIC "-//W3C//DTD SVG 1.1//EN" "http://www.w3.org/Graphics/SVG/1.1/DTD/svg11.dtd">
<svg xmlns="http://www.w3.org/2000/svg" version="1.1" width="322px" height="140px" style="shape-rendering:geometricPrecision; text-rendering:geometricPrecision; image-rendering:optimizeQuality; fill-rule:evenodd; clip-rule:evenodd" xmlns:xlink="http://www.w3.org/1999/xlink">
<g><path style="opacity:1" fill="#fefdfd" d="M -0.5,-0.5 C 106.833,-0.5 214.167,-0.5 321.5,-0.5C 321.5,46.1667 321.5,92.8333 321.5,139.5C 214.167,139.5 106.833,139.5 -0.5,139.5C -0.5,92.8333 -0.5,46.1667 -0.5,-0.5 Z"/></g>
<g><path style="opacity:1" fill="#ab271a" d="M 164.5,25.5 C 167.989,26.4769 170.823,28.4769 173,31.5C 184.178,47.8546 195.844,63.8546 208,79.5C 208.445,62.8243 209.111,46.1576 210,29.5C 213.112,25.301 216.779,24.6344 221,27.5C 221.667,50.8333 221.667,74.1667 221,97.5C 220.907,100.007 220.074,102.174 218.5,104C 214.668,104.435 211.168,103.601 208,101.5C 196.081,83.7477 183.581,66.4144 170.5,49.5C 169.682,52.1071 169.182,54.7737 169,57.5C 168.667,72.5 168.333,87.5 168,102.5C 164.826,104.621 161.493,104.954 158,103.5C 158.506,78.8424 159.173,54.1758 160,29.5C 161.397,27.9297 162.897,26.5964 164.5,25.5 Z"/></g>
<g><path style="opacity:1" fill="#ab271a" d="M 235.5,25.5 C 238.989,26.4769 241.823,28.4769 244,31.5C 255.178,47.8546 266.844,63.8546 279,79.5C 279.445,62.8243 280.111,46.1576 281,29.5C 284.112,25.301 287.779,24.6344 292,27.5C 292.667,50.8333 292.667,74.1667 292,97.5C 291.907,100.007 291.074,102.174 289.5,104C 285.668,104.435 282.168,103.601 279,101.5C 267.081,83.7477 254.581,66.4144 241.5,49.5C 240.682,52.1071 240.182,54.7737 240,57.5C 239.667,72.5 239.333,87.5 239,102.5C 235.826,104.621 232.493,104.954 229,103.5C 229.506,78.8424 230.173,54.1758 231,29.5C 232.397,27.9297 233.897,26.5964 235.5,25.5 Z"/></g>
<g><path style="opacity:1" fill="#ab271b" d="M 54.5,32.5 C 58.8461,32.3343 63.1794,32.501 67.5,33C 69.1066,34.049 69.7733,35.549 69.5,37.5C 44.8805,40.7855 31.5472,54.7855 29.5,79.5C 28.6787,89.0127 33.012,94.3461 42.5,95.5C 52.3571,94.3208 60.8571,90.3208 68,83.5C 69.4155,77.2855 69.9155,70.9522 69.5,64.5C 60.6394,65.972 51.8061,67.6387 43,69.5C 38.2886,69.3597 37.4553,67.5264 40.5,64C 42.2746,62.5611 44.2746,61.5611 46.5,61C 58.9872,59.0733 71.4872,57.2399 84,55.5C 86.59,55.3757 88.9233,56.0423 91,57.5C 91.6838,58.7839 91.5171,59.9505 90.5,61C 87.258,61.8693 84.4246,63.3693 82,65.5C 80.5866,80.1165 80.0866,94.7832 80.5,109.5C 76.6175,110.637 72.7842,110.637 69,109.5C 68.8303,103.472 68.3303,97.4725 67.5,91.5C 59.2216,98.3888 49.7216,102.389 39,103.5C 28.2612,103.097 21.2612,97.7633 18,87.5C 17.2424,60.2943 29.4091,41.9609 54.5,32.5 Z"/></g>
<g><path style="opacity:1" fill="#ac291c" d="M 120.5,52.5 C 132.658,51.1552 142.491,55.1552 150,64.5C 151.52,72.3114 148.354,76.8114 140.5,78C 133.646,78.6949 126.813,78.5282 120,77.5C 115.018,77.6577 111.018,79.6577 108,83.5C 107.742,91.5704 111.742,95.2371 120,94.5C 129.739,93.2998 139.072,90.6332 148,86.5C 150.259,86.2606 151.426,87.2606 151.5,89.5C 148.937,94.5579 144.937,98.0579 139.5,100C 126.006,106.498 113.006,105.831 100.5,98C 95.2784,90.8582 94.1118,83.0249 97,74.5C 101.178,63.1523 109.011,55.819 120.5,52.5 Z"/></g>
<g><path style="opacity:1" fill="#fcf8f7" d="M 124.5,60.5 C 130.001,59.6395 134.834,60.9729 139,64.5C 139.749,65.635 139.583,66.635 138.5,67.5C 129.335,70.7019 120.002,71.2019 110.5,69C 114.464,64.858 119.131,62.0247 124.5,60.5 Z"/></g>
</svg>

<svg xmlns="http://www.w3.org/2000/svg" width="322" height="140" style="shape-rendering:geometricPrecision;text-rendering:geometricPrecision;image-rendering:optimizeQuality;fill-rule:evenodd;clip-rule:evenodd"><path style="opacity:1" fill="#fefdfd" d="M-.5-.5h322v140H-.5V-.5z"/><path style="opacity:1" fill="#ab271a" d="M164.5 25.5c3.489.977 6.323 2.977 8.5 6a973.954 973.954 0 0 0 35 48 1878.404 1878.404 0 0 1 2-50c3.112-4.199 6.779-4.866 11-2 .667 23.333.667 46.667 0 70-.093 2.507-.926 4.674-2.5 6.5-3.832.435-7.332-.399-10.5-2.5a956.635 956.635 0 0 0-37.5-52 34.25 34.25 0 0 0-1.5 8l-1 45c-3.174 2.121-6.507 2.454-10 1a5701.425 5701.425 0 0 1 2-74c1.397-1.57 2.897-2.904 4.5-4zM235.5 25.5c3.489.977 6.323 2.977 8.5 6a973.954 973.954 0 0 0 35 48 1878.404 1878.404 0 0 1 2-50c3.112-4.199 6.779-4.866 11-2 .667 23.333.667 46.667 0 70-.093 2.507-.926 4.674-2.5 6.5-3.832.435-7.332-.399-10.5-2.5a956.635 956.635 0 0 0-37.5-52 34.25 34.25 0 0 0-1.5 8l-1 45c-3.174 2.121-6.507 2.454-10 1a5701.425 5701.425 0 0 1 2-74c1.397-1.57 2.897-2.904 4.5-4z"/><path style="opacity:1" fill="#ab271b" d="M54.5 32.5c4.346-.166 8.68.001 13 .5 1.607 1.049 2.273 2.549 2 4.5-24.62 3.285-37.953 17.285-40 42-.821 9.513 3.512 14.846 13 16 9.857-1.18 18.357-5.18 25.5-12 1.415-6.215 1.915-12.548 1.5-19a617.452 617.452 0 0 0-26.5 5c-4.711-.14-5.545-1.974-2.5-5.5a15.387 15.387 0 0 1 6-3A2539.758 2539.758 0 0 1 84 55.5c2.59-.124 4.923.542 7 2 .684 1.284.517 2.45-.5 3.5-3.242.87-6.075 2.37-8.5 4.5a353.557 353.557 0 0 0-1.5 44c-3.882 1.137-7.716 1.137-11.5 0a164.17 164.17 0 0 0-1.5-18c-8.278 6.889-17.778 10.889-28.5 12-10.739-.403-17.739-5.737-21-16-.758-27.206 11.41-45.54 36.5-55z"/><path style="opacity:1" fill="#ac291c" d="M120.5 52.5c12.158-1.345 21.991 2.655 29.5 12 1.52 7.811-1.646 12.311-9.5 13.5a81.646 81.646 0 0 1-20.5-.5c-4.982.158-8.982 2.158-12 6-.258 8.07 3.742 11.737 12 11a93.463 93.463 0 0 0 28-8c2.259-.24 3.426.76 3.5 3-2.563 5.058-6.563 8.558-12 10.5-13.494 6.498-26.494 5.831-39-2-5.222-7.142-6.388-14.975-3.5-23.5 4.178-11.348 12.011-18.681 23.5-22z"/><path style="opacity:1" fill="#fcf8f7" d="M124.5 60.5c5.501-.86 10.334.473 14.5 4 .749 1.135.583 2.135-.5 3-9.165 3.202-18.498 3.702-28 1.5 3.964-4.142 8.631-6.975 14-8.5z"/></svg>
